ui-icons/icons/engine-16.svg

<?xml version="1.0" encoding="UTF-8"?>
<svg width="16px" height="16px" viewBox="0 0 16 16" version="1.1" xmlns="http://www.w3.org/2000/svg" xmlns:xlink="http://www.w3.org/1999/xlink">
    <title>icon/16/engine-16</title>
    <g id="icon/16/engine-16" stroke="none" stroke-width="1" fill="none" fill-rule="evenodd">
        <path d="M9,0 C10.1045695,-2.02906125e-16 11,0.8954305 11,2 L11,16 L2,16 L2,2 C2,0.8954305 2.8954305,1.3527075e-16 4,0 L9,0 Z M8.5,1.5 L4.5,1.5 C3.94771525,1.5 3.5,1.94771525 3.5,2.5 L3.5,4.5 C3.5,5.05228475 3.94771525,5.5 4.5,5.5 L8.5,5.5 C9.05228475,5.5 9.5,5.05228475 9.5,4.5 L9.5,2.5 C9.5,1.94771525 9.05228475,1.5 8.5,1.5 Z" id="Combined-Shape" fill="#000000"></path>
        <path d="M10,10 C10,14 14,15 14,12 C14,9.98296386 13,9 13,8 C13,7.31329497 13,5.97996163 13,4" id="Path-2" stroke="#000000" stroke-width="1.5"></path>
        <path d="M12,3 L13.25,3 C13.6642136,3 14,3.33578644 14,3.75 L14,7.25 C14,7.66421356 13.6642136,8 13.25,8 L12,8 L12,8 L12,3 Z" id="Rectangle" fill="#000000"></path>
        <path d="M12.5598198,1 C12.9740334,1 13.3098198,1.33578644 13.3098198,1.75 L13.3098198,5 L13.3098198,5 L11.8098198,5 L11.8098198,1.75 C11.8098198,1.33578644 12.1456063,1 12.5598198,1 Z" id="Rectangle" fill="#000000" transform="translate(12.5598, 3) rotate(-20) translate(-12.5598, -3)"></path>
    </g>
</svg>

<svg xmlns="http://www.w3.org/2000/svg" width="16" height="16" viewBox="0 0 16 16"><g fill-rule="evenodd"><path d="M9 0a2 2 0 0 1 2 2v14H2V2a2 2 0 0 1 2-2zm-.5 1.5h-4a1 1 0 0 0-1 1v2a1 1 0 0 0 1 1h4a1 1 0 0 0 1-1v-2a1 1 0 0 0-1-1"/><path stroke="#000" stroke-width="1.5" d="M10 10c0 4 4 5 4 2 0-2.017-1-3-1-4V4"/><path d="M12 3h1.25a.75.75 0 0 1 .75.75v3.5a.75.75 0 0 1-.75.75H12z"/><path d="M11.876 1.12a.75.75 0 0 1 .961.449l1.112 3.054-1.41.513-1.111-3.054a.75.75 0 0 1 .448-.961"/></g></svg>
